X: 025
T: Lady Dalrymple Hamilton's Reel
C: attr. John French (1753-1803)
R: reel
B: "John French Collection", John French ed. p.2 #5
S: http://www.heallan.com/french.asp
Z: 2012 John Chambers <jc:trillian.mit.edu>
M: C
L: 1/8
K: G
f | ({a}gfg)d B2GB | DGBG cBAf | ({a}fgf)d BgdB | cAdB G/G/G G :|
c | BdGd BdGB | cAag aAAc | BdGd BdGB | cAdB G/G/G G ||
c | BdGd BdGB | cAag aAAc | Bdgb gdBG | cAdB G/G/G G |]

%%sep 2 1 500
%%sep 1 1 500

